X:61
T:Farewell ye Spanish Ladies (Baring)
%%VWML:SBG-1-2-384-0
F:http://www.vwml.org/record/SBG/1/2/384
Z:Original Sibelius transcriptions by M. & S. Graebe
M:6/8
I:linebreak $
K:F
V:1 treble nm="P1"
V:1
 C | F F F F2 G/A/ | B G F E C C | G G G G2 G/A/ | B A G c2 A |$ c c c A F G/A/ | B G F E C c | %7
 A A A B G F | E D E F2 x | %9
T:Farewell ye Spanish Ladies (Chappell)
F:http://www.vwml.org/record/SBG/1/2/384
Z:Original Sibelius transcriptions by M. & S. Graebe
M:3/4
I:linebreak $
K:Bb
V:1 treble nm="P1"
V:1
 D | G G ^F | G2 G/A/ | B A G | ^F D3/2 D/ | G G ^F | G2 G/A/ | B A G | A2 A |$ B A G | c B A | %11
 (d G) G/A/ | ^F/=E/ D d/c/ | B A G | ^F D D | D G ^F | G2 x | %17

